X:0818
T:Miss Lindsay's Jig.
N:last note in each part is d3 in the book
N:(c>d) figure has the dot but not the double tail
M:6/8
L:1/8
Q:3/8=116
I: :: :|
Z:Jack Campin * www.campin.me.uk * 2009
K:G
d|gag fed|ece d2d| ege      dBG    |(c>d)B A2c |GBd Bdf |dgb afd|bag fge|d3- d2:|
d|dBd gdB|c3  A2c|(B/c/d)d (f/g/a)f| g3   (d2c)|Bdg fad'|bge dBg|dcB cBA|G3- G2:|

